src/animals-nature/plant-other/1F331.svg

<svg id="emoji" viewBox="0 0 72 72" xmlns="http://www.w3.org/2000/svg">
  <g id="grid">
    <path fill="#b3b3b3" d="M68,4V68H4V4H68m4-4H0V72H72V0Z"/>
    <path fill="none" stroke="#00a5ff" stroke-miterlimit="10" stroke-width="0.1" d="M12.923,10.9583H59.0769A1.9231,1.9231,0,0,1,61,12.8814V59.0352a1.9231,1.9231,0,0,1-1.9231,1.9231H12.9231A1.9231,1.9231,0,0,1,11,59.0352V12.8813A1.923,1.923,0,0,1,12.923,10.9583Z"/>
    <rect x="16" y="4" rx="2.2537" width="40" height="64" fill="none" stroke="#00a5ff" stroke-miterlimit="10" stroke-width="0.1"/>
    <rect x="16" y="4" rx="2.2537" width="40" height="64" transform="translate(72) rotate(90)" fill="none" stroke="#00a5ff" stroke-miterlimit="10" stroke-width="0.1"/>
    <circle cx="36" cy="36" r="29" fill="none" stroke="#00a5ff" stroke-miterlimit="10" stroke-width="0.1"/>
  </g>
  <g id="color">
    <path fill="#B1CC33" stroke="none" d="M51.935,35.8718c4.1996,0.9278,6.7648,5.4824,6.7648,5.4824s-4.2448,3.05-8.4449,2.1226 s-6.7648-5.4824-6.7648-5.4824S47.7371,34.9462,51.935,35.8718z"/>
    <path fill="#5C9E31" stroke="none" d="M22.3618,19.992c4.067,1.3991,6.0978,6.2158,6.0978,6.2158s-4.5639,2.5478-8.6315,1.149 s-6.0978-6.2158-6.0978-6.2158S18.2963,18.5952,22.3618,19.992z"/>
  </g>
  <g id="hair"/>
  <g id="skin"/>
  <g id="skin-shadow"/>
  <g id="line">
    <path fill="none" stroke="#000000" stroke-linecap="round" stroke-linejoin="round" stroke-miterlimit="10" stroke-width="2" d="M34.9254,33.9599"/>
    <polyline fill="none" stroke="#000000" stroke-linecap="round" stroke-linejoin="round" stroke-width="2" points="36,63.1661 36,51.1661 31,29.1661"/>
    <line x1="36" x2="41" y1="51.1661" y2="41.1661" fill="none" stroke="#000000" stroke-linecap="round" stroke-linejoin="round" stroke-width="2"/>
    <path fill="none" stroke="#000000" stroke-linecap="round" stroke-linejoin="round" stroke-width="2" d="M22.3618,19.992 c4.067,1.3991,6.0978,6.2158,6.0978,6.2158s-4.5639,2.5478-8.6315,1.149s-6.0978-6.2158-6.0978-6.2158 S18.2963,18.5952,22.3618,19.992z"/>
    <path fill="none" stroke="#000000" stroke-linecap="round" stroke-linejoin="round" stroke-width="2" d="M51.935,35.8718 c4.1996,0.9278,6.7648,5.4824,6.7648,5.4824s-4.2448,3.05-8.4449,2.1226s-6.7648-5.4824-6.7648-5.4824 S47.7371,34.9462,51.935,35.8718z"/>
  </g>
</svg>

<svg viewBox="0 0 72 72" xmlns="http://www.w3.org/2000/svg"><path fill="#b3b3b3" d="M68 4v64H4V4h64m4-4H0v72h72V0z"/><path fill="none" stroke="#00a5ff" stroke-miterlimit="10" stroke-width=".1" d="M12.923 10.958h46.154A1.923 1.923 0 0161 12.881v46.154a1.923 1.923 0 01-1.923 1.923H12.923A1.923 1.923 0 0111 59.035V12.881a1.923 1.923 0 011.923-1.923z"/><rect x="16" y="4" rx="2.254" width="40" height="64" fill="none" stroke="#00a5ff" stroke-miterlimit="10" stroke-width=".1"/><rect x="16" y="4" rx="2.254" width="40" height="64" transform="rotate(90 36 36)" fill="none" stroke="#00a5ff" stroke-miterlimit="10" stroke-width=".1"/><circle cx="36" cy="36" r="29" fill="none" stroke="#00a5ff" stroke-miterlimit="10" stroke-width=".1"/><path d="M36 63.166v-12l-5-22m5 22l5-10M22.362 19.992c4.067 1.4 6.098 6.216 6.098 6.216s-4.564 2.548-8.632 1.149-6.098-6.216-6.098-6.216 4.566-2.546 8.632-1.149zm29.573 15.88c4.2.928 6.765 5.482 6.765 5.482s-4.245 3.05-8.445 2.123-6.765-5.483-6.765-5.483 4.247-3.048 8.445-2.122z" stroke-linecap="round" stroke-miterlimit="10" stroke-width="6" stroke="#fff" fill="none" stroke-linejoin="round"/><path fill="#B1CC33" d="M51.935 35.872c4.2.928 6.765 5.482 6.765 5.482s-4.245 3.05-8.445 2.123-6.765-5.483-6.765-5.483 4.247-3.048 8.445-2.122z"/><path fill="#5C9E31" d="M22.362 19.992c4.067 1.4 6.098 6.216 6.098 6.216s-4.564 2.548-8.632 1.149-6.098-6.216-6.098-6.216 4.566-2.546 8.632-1.149z"/><path d="M36 63.166v-12l-5-22m5 22l5-10M22.362 19.992c4.067 1.4 6.098 6.216 6.098 6.216s-4.564 2.548-8.632 1.149-6.098-6.216-6.098-6.216 4.566-2.546 8.632-1.149zm29.573 15.88c4.2.928 6.765 5.482 6.765 5.482s-4.245 3.05-8.445 2.123-6.765-5.483-6.765-5.483 4.247-3.048 8.445-2.122z" fill="none" stroke="#000" stroke-linecap="round" stroke-linejoin="round" stroke-width="2"/></svg>
